logo/ampersand.svg

<?xml version="1.0" encoding="UTF-8" standalone="no"?>
<svg width="256px" height="298px" viewBox="0 0 256 298" version="1.1" xmlns="http://www.w3.org/2000/svg" xmlns:xlink="http://www.w3.org/1999/xlink" preserveAspectRatio="xMidYMid">
	<g>
		<path d="M124.444298,131.966382 L176.043153,194.38648 L177.758716,192.670917 C183.301304,186.73243 188.579959,180.793943 193.462715,174.855456 C198.345471,168.916968 211.278177,155.324431 215.765034,149.122011 L235.95589,186.072598 C232.524764,190.955354 227.905941,196.893841 222.363353,203.49216 C216.820765,210.090479 210.222446,217.74453 202.172497,226.190378 L255.486915,292.041602 L201.512665,292.041602 L172.87596,256.806578 C146.746616,283.991653 119.165643,297.58419 90.9248369,297.58419 C65.4553252,297.58419 43.944805,289.534241 26.1293435,273.17041 C8.70978118,256.806578 -1.42108547e-14,236.615722 -1.42108547e-14,212.597841 C-1.42108547e-14,183.961136 13.5925373,159.943254 41.4374438,141.204028 L60.3086364,128.271323 C60.7045355,128.271323 60.9684683,127.875424 61.7602666,127.215592 C62.4200985,126.819693 63.2118968,126.159861 64.1356614,125.10413 C45.2644689,104.913273 35.4989566,84.9863497 35.4989566,65.4553252 C35.4989566,45.9243008 41.8333429,30.2203014 54.3701492,18.0793943 C67.3028546,5.93848717 83.9306187,2.84217094e-14 104.517374,2.84217094e-14 C124.444298,2.84217094e-14 140.41223,5.93848717 153.344935,17.8154615 C166.277641,29.6924358 172.87596,44.604637 172.87596,62.4200985 C172.87596,74.9569047 169.444834,86.1740471 162.450616,96.2034921 C155.060498,105.837038 142.523692,118.109911 124.444298,131.966382 L124.444298,131.966382 Z M90.0010722,156.380162 L87.6256773,158.095725 C69.8102158,170.236632 57.6693087,180.398044 51.3349224,187.656195 C45.0005361,194.914346 41.9653093,202.964295 41.9653093,211.410143 C41.9653093,223.287118 46.8480654,234.372294 56.2176785,244.137806 C65.9831908,253.507419 77.0683668,258.390175 88.9453412,258.390175 C105.705072,258.390175 124.840197,247.568932 146.746616,225.662512 L90.0010722,156.380162 L90.0010722,156.380162 Z M99.3706853,101.74608 L102.801811,98.9747861 C108.740298,94.4879292 114.018954,90.265005 117.845979,87.0978118 C121.673004,83.6666859 124.840197,80.7634255 126.55576,78.3880306 C130.382785,73.9011737 132.098348,68.2266193 132.098348,61.3643674 C132.098348,53.7103173 129.722953,47.7718301 124.444298,42.889074 C119.165643,38.0063179 112.567323,35.8948558 103.857542,35.8948558 C96.2034921,35.8948558 89.6051731,38.2702506 83.9306187,43.1530068 C78.6519634,47.6398637 75.8806694,53.5783509 75.8806694,60.9684683 C75.8806694,69.2823503 79.3117953,77.7281987 86.0420808,86.0420808 L96.863324,98.9747861 C97.2592232,99.2387189 97.9190551,100.29445 99.3706853,101.74608 L99.3706853,101.74608 Z" fill="#E7168E"></path>
		<path d="M87.5260299,2.10763815 C76.0449547,8.04612531 77.4965849,7.65022617 69.578602,17.9436039 C27.7452591,72.973585 68.6548373,110.584004 85.6785006,130.77486 C80.2678789,134.469919 74.8572573,138.164978 69.4466356,141.860036 C59.4171906,148.722288 49.2557793,155.58454 40.8099308,164.294321 C32.232116,173.004102 25.3698642,183.561413 22.9944693,195.438387 C21.0149736,205.335866 21.8067719,215.76121 24.4460995,225.394756 C39.490267,281.348501 87.2620971,278.577207 102.702164,289.79435 C97.951374,298.108232 86.9981644,292.301711 77.4965849,294.017274 C67.9950054,295.732837 65.751577,292.961543 56.5139302,290.190249 C28.9329565,281.876367 9.00603289,262.213376 2.67164658,234.104537 C-6.96189927,192.007261 14.0207554,168.253312 14.0207554,168.253312 C14.0207554,168.253312 18.6395787,158.751733 35.7952083,144.63133 C36.8509394,143.707566 63.5081485,126.683902 63.9040476,125.364238 C64.5638795,123.648676 50.8393758,110.847937 48.3320146,105.173382 C45.0328551,97.7832648 35.2673428,84.1907275 35.2673428,67.1670642 C35.3993092,42.3573845 44.9008887,10.8174193 86.866198,1.18387347 L87.5260299,2.10763815 Z M90.5612567,157.564036 C94.3882817,154.000943 95.9718783,152.681279 100.722668,150.305885 C120.121726,172.080338 136.617524,192.667093 154.828884,216.553008 C150.342028,219.720201 146.646969,225.658688 146.646969,225.658688 L90.5612567,157.564036 Z M123.816785,285.835358 C142.028145,275.541981 157.732145,260.62978 169.081254,243.078251 C169.741086,242.02252 170.66485,240.702856 171.984514,240.57089 C173.304178,240.438923 174.491875,241.626621 175.41564,242.550385 C188.480312,257.594553 196.398295,268.151863 207.351504,284.911594 C201.940883,287.946821 204.712177,287.682888 198.509757,287.286989 C195.47453,287.155022 173.96401,256.010956 172.380413,257.33062 C163.670632,265.248603 142.95191,289.662384 123.552852,285.967325 L123.816785,285.835358 Z M230.577587,176.303262 C219.756344,189.104001 209.462966,201.772773 199.037622,214.969412 C198.641723,215.497277 198.113858,216.157109 197.981891,216.948907 C197.849925,218.136605 200.885152,223.943125 202.468748,225.790655 C210.650664,216.948907 219.228479,207.843227 225.958764,199.133446 C229.125957,195.174454 235.328377,186.332707 235.988209,185.936808 C235.59231,185.672875 230.84152,176.567195 230.577587,176.303262 Z M98.0833404,101.214391 C102.174298,105.701248 106.265256,110.056138 110.356214,114.542995 C125.532348,105.701248 136.617524,89.9972482 139.916683,72.7096523 C140.708482,68.7506608 140.972414,64.5277366 140.444549,60.5687452 C138.860952,49.2196364 129.09544,40.113956 117.878298,38.3983931 C124.608583,42.0934517 128.831507,46.5803087 131.074936,52.914695 C133.450331,59.2490813 132.658532,66.9031315 129.623306,72.973585 C127.907743,76.5366773 125.268415,79.4399377 122.629087,82.4751645 C115.898802,89.8652819 108.772617,94.3521388 99.7989034,101.874223 L98.0833404,101.214391 Z" fill-opacity="0.1" fill="#000000"></path>
	</g>
</svg>

<svg viewBox="0 0 256 298" xmlns="http://www.w3.org/2000/svg"><path fill="#E7168E" d="M124.44 131.96l51.59 62.42 1.71-1.72c5.54-5.94 10.82-11.88 15.7-17.82 4.88-5.94 17.81-19.54 22.3-25.74l20.19 36.95c-3.44 4.88-8.05 10.82-13.6 17.41 -5.55 6.59-12.15 14.25-20.2 22.69L255.44 292h-53.98l-28.64-35.24c-26.13 27.18-53.72 40.77-81.96 40.77 -25.47 0-46.99-8.05-64.8-24.42C8.64 256.74-.07 236.55-.07 212.53c0-28.64 13.59-52.66 41.43-71.4l18.87-12.94c.39 0 .65-.4 1.45-1.06 .65-.4 1.45-1.06 2.37-2.12 -18.88-20.2-28.64-40.12-28.64-59.65 0-19.54 6.33-35.24 18.87-47.38C67.21 5.83 83.84-.1 104.42-.1c19.92 0 35.89 5.93 48.82 17.81 12.93 11.87 19.53 26.78 19.53 44.6 0 12.53-3.44 23.75-10.43 33.78 -7.4 9.63-19.93 21.9-38.01 35.76v0Zm-34.45 24.41l-2.38 1.71c-17.82 12.14-29.96 22.3-36.3 29.56 -6.34 7.25-9.37 15.3-9.37 23.75 0 11.87 4.88 22.96 14.25 32.72 9.76 9.36 20.85 14.25 32.72 14.25 16.75 0 35.89-10.83 57.8-32.73l-56.75-69.29v0Zm9.36-54.64l3.43-2.78c5.93-4.49 11.21-8.71 15.04-11.88 3.82-3.44 6.99-6.34 8.7-8.71 3.82-4.49 5.54-10.17 5.54-17.03 0-7.66-2.38-13.6-7.66-18.48 -5.28-4.89-11.88-7-20.59-7 -7.66 0-14.26 2.37-19.93 7.25 -5.28 4.48-8.05 10.42-8.05 17.81 0 8.31 3.43 16.75 10.16 25.07l10.82 12.93c.39.26 1.05 1.31 2.5 2.77v0Z"/><path fill-opacity=".1" d="M87.52 2.1C76.03 8.03 77.49 7.64 69.57 17.93c-41.84 55.02-.93 92.64 16.09 112.83 -5.42 3.69-10.83 7.39-16.24 11.08 -10.03 6.86-20.2 13.72-28.64 22.43 -8.58 8.7-15.45 19.26-17.82 31.14 -1.98 9.89-1.19 20.32 1.45 29.95 15.04 55.95 62.81 53.18 78.25 64.39 -4.76 8.31-15.71 2.5-25.21 4.22 -9.51 1.71-11.75-1.06-20.99-3.83 -27.59-8.32-47.51-27.98-53.85-56.09 -9.64-42.1 11.34-65.86 11.34-65.86s4.61-9.51 21.77-23.63c1.05-.93 27.71-17.95 28.1-19.27 .65-1.72-13.07-14.52-15.58-20.2 -3.3-7.4-13.07-20.99-13.07-38.01 .13-24.81 9.63-56.35 51.59-65.99l.65.92Zm3.03 155.45c3.82-3.57 5.41-4.89 10.16-7.26 19.39 21.77 35.89 42.36 54.1 66.24 -4.49 3.16-8.19 9.1-8.19 9.1l-56.09-68.1Zm33.25 128.27c18.21-10.3 33.91-25.21 45.26-42.76 .65-1.06 1.58-2.38 2.9-2.51 1.31-.14 2.5 1.05 3.43 1.97 13.06 15.04 20.98 25.6 31.93 42.36 -5.42 3.03-2.64 2.77-8.85 2.37 -3.04-.14-24.55-31.28-26.13-29.96 -8.71 7.91-29.43 32.33-48.83 28.63l.26-.14Zm106.76-109.54c-10.83 12.8-21.12 25.46-31.54 38.66 -.4.52-.93 1.18-1.06 1.97 -.14 1.18 2.9 6.99 4.48 8.84 8.18-8.85 16.75-17.95 23.49-26.66 3.16-3.96 9.36-12.81 10.02-13.2 -.4-.27-5.15-9.37-5.42-9.64Zm-132.5-75.09c4.09 4.48 8.18 8.84 12.27 13.32 15.17-8.85 26.26-24.55 29.56-41.84 .79-3.96 1.05-8.19.52-12.15 -1.59-11.35-11.35-20.46-22.57-22.18 6.73 3.69 10.95 8.18 13.19 14.51 2.37 6.33 1.58 13.98-1.46 20.05 -1.72 3.56-4.36 6.46-7 9.5 -6.74 7.39-13.86 11.87-22.84 19.39l-1.72-.66Z"/></svg>
